X: 11892
T: Emma's
R: jig
M: 6/8
K: Eminor
B,EE CEE|DEF EFG|B,EE CEE|DEF E2D|
B,EE CEE|DEF EFG|E^GB E^GB|AFD E2D:|
[K:E]
EGB Ace|Bdf e2f|gfg efg|aga f3|
=gfg fe=d|B/^c/=dB BAG|~E3Bc=d|AFD E2D:|

